muebles/img/graphic-design.svg

<svg width="41" height="39" viewBox="0 0 41 39" fill="none" xmlns="http://www.w3.org/2000/svg">
<path d="M2.37488 19.6785C2.28528 19.5933 2.17113 19.5352 2.04686 19.5117C1.92259 19.4882 1.79378 19.5003 1.67672 19.5464C1.55965 19.5925 1.4596 19.6706 1.38921 19.7708C1.31881 19.8711 1.28125 19.9889 1.28125 20.1094V37.1719C1.28125 37.3335 1.34874 37.4885 1.46888 37.6028C1.58902 37.7171 1.75197 37.7813 1.92187 37.7813H19.8594C19.9861 37.7813 20.1099 37.7455 20.2153 37.6786C20.3206 37.6116 20.4028 37.5164 20.4512 37.4051C20.4997 37.2937 20.5124 37.1712 20.4877 37.053C20.463 36.9348 20.402 36.8262 20.3124 36.741L2.37488 19.6785ZM2.5625 36.5625V21.5805L18.3128 36.5625H2.5625Z" fill="black"/>
<path d="M5.76562 34.1249H10.8906C11.0173 34.1249 11.1412 34.0892 11.2465 34.0222C11.3519 33.9553 11.434 33.8601 11.4825 33.7487C11.531 33.6374 11.5437 33.5148 11.519 33.3966C11.4942 33.2784 11.4332 33.1698 11.3436 33.0846L6.21863 28.2096C6.12903 28.1244 6.01488 28.0664 5.89061 28.0428C5.76634 28.0193 5.63753 28.0314 5.52046 28.0775C5.4034 28.1236 5.30335 28.2017 5.23296 28.302C5.16256 28.4022 5.125 28.52 5.125 28.6405V33.5155C5.125 33.6771 5.19249 33.8321 5.31263 33.9464C5.43278 34.0607 5.59572 34.1249 5.76562 34.1249ZM6.40625 30.1117L9.34407 32.9062H6.40625V30.1117Z" fill="black"/>
<path d="M8.32812 3.65625H9.60938V4.875H8.32812V3.65625Z" fill="black"/>
<path d="M10.8906 3.65625H12.1719V4.875H10.8906V3.65625Z" fill="black"/>
<path d="M13.4531 3.65625H14.7344V4.875H13.4531V3.65625Z" fill="black"/>
<path d="M14.4746 12.2408C14.3607 12.2876 14.2638 12.3654 14.1961 12.4643C14.1283 12.5631 14.0927 12.6788 14.0937 12.7969V19.5C14.0937 19.6179 14.1297 19.7332 14.1972 19.8321C14.2647 19.9309 14.3609 20.009 14.4742 20.0569L20.2398 22.4944C20.3217 22.5291 20.4104 22.547 20.5001 22.5469C20.5898 22.5469 20.6785 22.5288 20.7603 22.4939V22.4944L26.526 20.0569C26.6392 20.009 26.7354 19.9309 26.8029 19.832C26.8704 19.7332 26.9063 19.6179 26.9063 19.5V12.7969C26.9072 12.6788 26.8716 12.5631 26.8039 12.4643C26.7362 12.3654 26.6393 12.2876 26.5254 12.2408V12.24L20.7598 9.80248C20.6778 9.76788 20.5892 9.75 20.4995 9.75C20.4099 9.75 20.3212 9.76788 20.2393 9.80248L14.4736 12.24L14.4746 12.2408ZM19.8594 20.9998L15.375 19.1039V13.7345L19.8594 15.6305V20.9998ZM25.625 19.1039L21.1406 20.9998V15.6305L25.625 13.7346V19.1039ZM20.5 11.0262L24.6881 12.7969L20.5 14.5675L16.3119 12.7969L20.5 11.0262Z" fill="black"/>
<path d="M19.8594 24.375H21.1406V27.4219H19.8594V24.375Z" fill="black"/>
<path d="M19.8594 5.48438H21.1406V8.53125H19.8594V5.48438Z" fill="black"/>
<path d="M9.32968 11.5223L9.8819 10.423L12.5635 11.6418L12.0112 12.7412L9.32968 11.5223Z" fill="black"/>
<path d="M28.4218 11.6331L31.1034 10.4142L31.6556 11.5136L28.9741 12.7324L28.4218 11.6331Z" fill="black"/>
<path d="M9.32947 21.3809L12.011 20.162L12.5632 21.2614L9.88169 22.4802L9.32947 21.3809Z" fill="black"/>
<path d="M39.0781 29.25H35.2344V19.7524L39.0005 16.1701C39.2282 15.9534 39.4088 15.6963 39.5321 15.4132C39.6553 15.1302 39.7188 14.8268 39.7188 14.5204C39.7188 14.2141 39.6553 13.9107 39.5321 13.6277C39.4088 13.3446 39.2282 13.0874 39.0004 12.8708C38.7727 12.6542 38.5023 12.4823 38.2047 12.3651C37.9072 12.2479 37.5882 12.1875 37.2662 12.1875C36.9441 12.1875 36.6252 12.2479 36.3276 12.3651C36.0301 12.4824 35.7597 12.6542 35.5319 12.8708L35.2344 13.1539V7.92188C35.2344 7.84185 35.2178 7.76261 35.1856 7.68867C35.1534 7.61474 35.1062 7.54756 35.0468 7.49097L28.6405 1.39722C28.581 1.34064 28.5104 1.29575 28.4327 1.26513C28.3549 1.23451 28.2716 1.21875 28.1875 1.21875H8.32812C7.64874 1.21948 6.9974 1.47652 6.51701 1.93348C6.03661 2.39044 5.76639 3.01001 5.76562 3.65625V21.3281H7.04688V3.65625C7.04728 3.33313 7.1824 3.02336 7.42259 2.79489C7.66278 2.56641 7.98844 2.43788 8.32812 2.4375H27.5469V6.09375C27.5476 6.73999 27.8179 7.35956 28.2983 7.81652C28.7787 8.27348 29.43 8.53052 30.1094 8.53125H33.9531V14.3726L23.8907 23.9441C23.8013 24.0292 23.7404 24.1375 23.7155 24.2555L23.0749 27.3024C23.0542 27.4007 23.0594 27.5025 23.0899 27.5985C23.1205 27.6945 23.1755 27.7819 23.2501 27.8528C23.3247 27.9237 23.4165 27.9761 23.5175 28.0051C23.6184 28.0342 23.7253 28.0391 23.8288 28.0194L27.0319 27.4101C27.1559 27.3865 27.2698 27.3285 27.3593 27.2434L33.9531 20.9712V29.25H21.1406C20.9707 29.25 20.8078 29.3142 20.6876 29.4285C20.5675 29.5428 20.5 29.6978 20.5 29.8594V31.6875H17.2969V32.9062H20.5V34.7344C20.5 34.896 20.5675 35.051 20.6876 35.1653C20.8078 35.2795 20.9707 35.3438 21.1406 35.3438H39.0781C39.248 35.3438 39.411 35.2795 39.5311 35.1653C39.6513 35.051 39.7188 34.896 39.7188 34.7344V29.8594C39.7188 29.6978 39.6513 29.5428 39.5311 29.4285C39.411 29.3142 39.248 29.25 39.0781 29.25ZM28.8281 6.09375V3.29931L33.0471 7.3125H30.1094C29.7697 7.31212 29.444 7.18359 29.2038 6.95511C28.9636 6.72664 28.8285 6.41686 28.8281 6.09375ZM25.2498 24.375L35.2344 14.8774L36.8909 16.4531L26.9062 25.9507L25.2498 24.375ZM37.2662 13.4062C37.4979 13.4063 37.7243 13.4716 37.9169 13.5941C38.1096 13.7165 38.2597 13.8905 38.3483 14.0941C38.437 14.2977 38.4602 14.5217 38.415 14.7378C38.3698 14.954 38.2582 15.1525 38.0944 15.3083L37.7969 15.5913L36.1404 14.0156L36.4379 13.7326C36.5465 13.6288 36.6755 13.5465 36.8177 13.4905C36.9599 13.4345 37.1123 13.4058 37.2662 13.4062ZM24.7372 25.611L25.6068 26.4383L24.5199 26.6449L24.7372 25.611ZM38.4375 34.125H21.7812V30.4688H23.0625V31.6875H24.3438V30.4688H25.625V31.6875H26.9062V30.4688H28.1875V31.6875H29.4688V30.4688H30.75V31.6875H32.0312V30.4688H33.3125V31.6875H34.5938V30.4688H35.875V31.6875H37.1562V30.4688H38.4375V34.125Z" fill="black"/>
</svg>

<svg width="41" height="39" fill="none" xmlns="http://www.w3.org/2000/svg"><path d="M2.375 19.678a.672.672 0 00-.698-.132.635.635 0 00-.288.225.589.589 0 00-.108.338v17.063a.59.59 0 00.188.43c.12.115.283.18.453.18h17.937c.127 0 .25-.036.356-.103a.617.617 0 00.236-.274.582.582 0 00-.139-.664L2.375 19.678zm.188 16.884V21.581l15.75 14.982H2.563z" fill="#000"/><path d="M5.766 34.125h5.125c.126 0 .25-.036.355-.103a.616.616 0 00.236-.273.582.582 0 00-.138-.664L6.219 28.21a.672.672 0 00-.698-.132.634.634 0 00-.288.224.588.588 0 00-.108.338v4.876a.59.59 0 00.188.43c.12.115.283.179.453.179zm.64-4.013l2.938 2.794H6.406v-2.794zM8.328 3.656H9.61v1.219H8.33V3.656zm2.562 0h1.282v1.219H10.89V3.656zm2.563 0h1.281v1.219h-1.28V3.656zm1.022 8.584a.624.624 0 00-.279.224.579.579 0 00-.102.333V19.5c0 .118.036.233.103.332a.633.633 0 00.277.225l5.766 2.437a.666.666 0 00.52 0l5.766-2.437a.633.633 0 00.277-.225.588.588 0 00.103-.332v-6.703a.58.58 0 00-.102-.333.624.624 0 00-.279-.223v-.001L20.76 9.802a.67.67 0 00-.52 0l-5.766 2.438zM19.859 21l-4.484-1.896v-5.37l4.484 1.896V21zm5.766-1.896L21.141 21v-5.37l4.484-1.895v5.369zM20.5 11.026l4.188 1.77-4.188 1.772-4.188-1.771 4.188-1.77zm-.64 13.349h1.28v3.047h-1.28v-3.047zm0-18.891h1.28v3.047h-1.28V5.484zM9.33 11.522l.552-1.099 2.681 1.219-.552 1.1-2.681-1.22zm19.092.111l2.681-1.219.553 1.1-2.682 1.218-.552-1.099zM9.33 21.38l2.681-1.218.552 1.1-2.681 1.218-.553-1.1z" fill="#000"/><path d="M39.078 29.25h-3.844v-9.498l3.767-3.582a2.33 2.33 0 00.531-.757 2.235 2.235 0 000-1.785A2.328 2.328 0 0039 12.87a2.464 2.464 0 00-.795-.506 2.563 2.563 0 00-1.877 0c-.298.117-.568.29-.796.506l-.298.283V7.922a.584.584 0 00-.187-.431L28.64 1.397a.644.644 0 00-.453-.178H8.328c-.68 0-1.33.258-1.811.714a2.382 2.382 0 00-.751 1.723v17.672h1.28V3.656a1.19 1.19 0 01.377-.861 1.31 1.31 0 01.905-.357h19.219v3.656c0 .646.27 1.266.751 1.723.48.456 1.132.714 1.811.714h3.844v5.842l-10.062 9.571a.602.602 0 00-.175.312l-.641 3.046a.581.581 0 00.175.55.659.659 0 00.579.167l3.203-.609a.652.652 0 00.327-.167l6.594-6.272v8.279H21.141a.658.658 0 00-.453.178.595.595 0 00-.188.431v1.828h-3.203v1.22H20.5v1.827a.59.59 0 00.188.431c.12.114.283.179.453.179h17.937c.17 0 .333-.065.453-.179a.595.595 0 00.188-.43v-4.876a.595.595 0 00-.188-.43.658.658 0 00-.453-.179zM28.828 6.094V3.299l4.22 4.014h-2.939c-.34 0-.665-.13-.905-.358a1.19 1.19 0 01-.376-.861zM25.25 24.375l9.984-9.498 1.657 1.576-9.985 9.498-1.656-1.576zm12.016-10.969c.232 0 .458.066.65.188.194.123.344.296.432.5.089.204.112.428.067.644a1.098 1.098 0 01-.32.57l-.298.283-1.657-1.575.298-.283a1.17 1.17 0 01.38-.242c.142-.056.294-.085.448-.085zM24.737 25.611l.87.827-1.087.207.217-1.034zm13.7 8.514H21.782v-3.656h1.282v1.218h1.28V30.47h1.282v1.218h1.281V30.47h1.282v1.218h1.28V30.47h1.282v1.218h1.281V30.47h1.282v1.218h1.28V30.47h1.282v1.218h1.281V30.47h1.282v3.656z" fill="#000"/></svg>
